usr/share/icons/biglinux-icons-material/symbolic/devices/media-zip-symbolic.svg

<svg width="16" height="16" version="1.1" xmlns="http://www.w3.org/2000/svg">
 <path d="m5.1667 1c0.27046 0 0.53484 0.0731 0.76571 0.21016l0.13429 0.08984 1.6003 1.7h5.833c1.2703 0 2.3192 0.94737 2.4789 2.1741l0.0158 0.16153 0.0053 0.16438v7c0 1.3255-1.0315 2.41-2.3356 2.4947l-0.1644 0.0053h-11c-1.3255 0-2.41-1.0315-2.4947-2.3356l-0.00532-0.1644v-9c0-1.3255 1.0315-2.41 2.3356-2.4947l0.16438-0.00532zm6.838 3h-1v2h1zm-2 0h-2.3877l-1.4594 1.5345c-0.24772 0.26011-0.57925 0.42143-0.93328 0.4577l-0.15292 0.00781-4.0714-1e-3v6.501c0 0.7797 0.59489 1.4204 1.3555 1.4931l0.14446 0.0069h8.5044l-6e-4 -0.9377c-0.0025-0.0204-0.0038-0.0412-0.0038-0.0623 0-0.0209 0.0013-0.0415 0.0038-0.0617l-6e-4 -0.9383h-0.4985c-0.2762 0-0.5-0.2239-0.5-0.5s0.2238-0.5 0.5-0.5h0.498l-0.0012-2h-0.5015c-0.2761 0-0.5-0.2239-0.5-0.5s0.2239-0.5 0.5-0.5h0.5l4e-4 -1h-0.4957c-0.1327 0-0.2598-0.05268-0.3536-0.14645-0.0938-0.09376-0.1464-0.22094-0.1464-0.35355zm1.9988 8.5h0.4965c0.2761 0 0.5 0.2239 0.5 0.5s-0.2239 0.5-0.5 0.5h-0.4959l3e-4 0.5h1.4956c0.7797 0 1.4204-0.5949 1.4931-1.3555l0.0069-0.1445v-7c0-0.7797-0.5949-1.4204-1.3555-1.4931l-0.1445-0.0068701h-0.4953v2.5c0 0.27614-0.2239 0.5-0.5 0.5h-0.5043l0.0014 2.5h0.5029c0.2761 0 0.5 0.2239 0.5 0.5 0 0.2761-0.2239 0.5-0.5 0.5h-0.5023l5e-4 0.9581c0.0012 0.0138 0.0018 0.0278 0.0018 0.0419 0 0.0139-6e-4 0.0277-0.0017 0.0413zm-6.8368-10.5h-2.6667c-0.7797 0-1.4204 0.59489-1.4931 1.3555l-0.00687 0.14446v1.499l4.0714 1e-3c0.10947 0 0.21512-0.03589 0.30131-0.10098l0.06076-0.05419 1.2605-1.3238-1.2273-1.421c-0.06491-0.04868-0.14035-0.08059-0.21966-0.0935z" fill="#dedede"/>
</svg>

<svg xmlns="http://www.w3.org/2000/svg" width="16" height="16"><path fill="#dedede" d="M5.167 1c.27 0 .535.073.765.21l.135.09 1.6 1.7H13.5a2.5 2.5 0 0 1 2.479 2.174l.016.162L16 5.5v7a2.5 2.5 0 0 1-2.336 2.495L13.5 15h-11a2.5 2.5 0 0 1-2.495-2.336L0 12.5v-9a2.5 2.5 0 0 1 2.336-2.495L2.5 1zm6.838 3h-1v2h1zm-2 0H7.617l-1.46 1.534a1.5 1.5 0 0 1-.933.458L5.071 6 1 5.999V12.5a1.5 1.5 0 0 0 1.355 1.493L2.5 14h8.504v-.938a.512.512 0 0 1 0-.124V12h-.5a.5.5 0 1 1 0-1h.499L11 9H10.5a.5.5 0 0 1 0-1h.5V7h-.495a.5.5 0 0 1-.5-.5zm1.998 8.5h.497a.5.5 0 0 1 0 1h-.496v.5H13.5a1.5 1.5 0 0 0 1.493-1.355L15 12.5v-7a1.5 1.5 0 0 0-1.356-1.493L13.5 4h-.495v2.5a.5.5 0 0 1-.5.5H12l.002 2.5h.503a.5.5 0 0 1 0 1h-.503v.958a.484.484 0 0 1 .001.083zM5.167 2H2.5a1.5 1.5 0 0 0-1.493 1.355L1 3.5v1.499L5.071 5a.5.5 0 0 0 .302-.101l.06-.054L6.694 3.52 5.467 2.1a.5.5 0 0 0-.22-.094z"/></svg>
